static/img/kroki/6bacd6fba1d4a5416175694fdab7f2b9.svg

<?xml version="1.0" encoding="us-ascii" standalone="no"?><svg xmlns="http://www.w3.org/2000/svg" xmlns:xlink="http://www.w3.org/1999/xlink" contentStyleType="text/css" height="252px" preserveAspectRatio="none" style="width:256px;height:252px;" version="1.1" viewBox="0 0 256 252" width="256px" zoomAndPan="magnify"><defs/><g><!--class azure_nat_gateway--><g id="elem_azure_nat_gateway"><rect codeLine="22" fill="#3D176E" height="39.7891" id="azure_nat_gateway" rx="2.5" ry="2.5" style="stroke:#000D19;stroke-width:0.5;" width="206" x="25" y="106.79"/><ellipse cx="40" cy="126.6845" fill="#ADD1B2" rx="11" ry="11" style="stroke:#181818;stroke-width:1.0;"/><path d="M42.9688,132.3252 Q42.3906,132.622 41.75,132.7627 Q41.1094,132.9189 40.4063,132.9189 Q37.9063,132.9189 36.5781,131.2783 Q35.2656,129.622 35.2656,126.497 Q35.2656,123.372 36.5781,121.7158 Q37.9063,120.0595 40.4063,120.0595 Q41.1094,120.0595 41.75,120.2158 Q42.4063,120.372 42.9688,120.6689 L42.9688,123.3877 Q42.3438,122.8095 41.75,122.5439 Q41.1563,122.2627 40.5313,122.2627 Q39.1875,122.2627 38.5,123.3408 Q37.8125,124.4033 37.8125,126.497 Q37.8125,128.5908 38.5,129.6689 Q39.1875,130.7314 40.5313,130.7314 Q41.1563,130.7314 41.75,130.4658 Q42.3438,130.1845 42.9688,129.6064 L42.9688,132.3252 Z " fill="#000000"/><text fill="#D9B8FF" font-family="Helvetica" font-size="17" lengthAdjust="spacing" textLength="164" x="59" y="132.5698">azure_nat_gateway</text></g><!--class azure_public_ip_address--><g id="elem_azure_public_ip_address"><rect codeLine="24" fill="#3D176E" height="39.7891" id="azure_public_ip_address" rx="2.5" ry="2.5" style="stroke:#000D19;stroke-width:0.5;" width="242" x="7" y="206.58"/><ellipse cx="22" cy="226.4745" fill="#ADD1B2" rx="11" ry="11" style="stroke:#181818;stroke-width:1.0;"/><path d="M24.9688,232.1152 Q24.3906,232.412 23.75,232.5527 Q23.1094,232.7089 22.4063,232.7089 Q19.9063,232.7089 18.5781,231.0683 Q17.2656,229.412 17.2656,226.287 Q17.2656,223.162 18.5781,221.5058 Q19.9063,219.8495 22.4063,219.8495 Q23.1094,219.8495 23.75,220.0058 Q24.4063,220.162 24.9688,220.4589 L24.9688,223.1777 Q24.3438,222.5995 23.75,222.3339 Q23.1563,222.0527 22.5313,222.0527 Q21.1875,222.0527 20.5,223.1308 Q19.8125,224.1933 19.8125,226.287 Q19.8125,228.3808 20.5,229.4589 Q21.1875,230.5214 22.5313,230.5214 Q23.1563,230.5214 23.75,230.2558 Q24.3438,229.9745 24.9688,229.3964 L24.9688,232.1152 Z " fill="#000000"/><text fill="#D9B8FF" font-family="Helvetica" font-size="17" lengthAdjust="spacing" textLength="200" x="41" y="232.3598">azure_public_ip_address</text></g><!--class azure_subnet--><g id="elem_azure_subnet"><rect codeLine="26" fill="#3D176E" height="39.7891" id="azure_subnet" rx="2.5" ry="2.5" style="stroke:#000D19;stroke-width:0.5;" width="154" x="51" y="7"/><ellipse cx="66" cy="26.8945" fill="#ADD1B2" rx="11" ry="11" style="stroke:#181818;stroke-width:1.0;"/><path d="M68.9688,32.5352 Q68.3906,32.832 67.75,32.9727 Q67.1094,33.1289 66.4063,33.1289 Q63.9063,33.1289 62.5781,31.4883 Q61.2656,29.832 61.2656,26.707 Q61.2656,23.582 62.5781,21.9258 Q63.9063,20.2695 66.4063,20.2695 Q67.1094,20.2695 67.75,20.4258 Q68.4063,20.582 68.9688,20.8789 L68.9688,23.5977 Q68.3438,23.0195 67.75,22.7539 Q67.1563,22.4727 66.5313,22.4727 Q65.1875,22.4727 64.5,23.5508 Q63.8125,24.6133 63.8125,26.707 Q63.8125,28.8008 64.5,29.8789 Q65.1875,30.9414 66.5313,30.9414 Q67.1563,30.9414 67.75,30.6758 Q68.3438,30.3945 68.9688,29.8164 L68.9688,32.5352 Z " fill="#000000"/><text fill="#D9B8FF" font-family="Helvetica" font-size="17" lengthAdjust="spacing" textLength="112" x="85" y="32.7798">azure_subnet</text></g><!--link azure_nat_gateway to azure_public_ip_address--><g id="link_azure_nat_gateway_azure_public_ip_address"><path codeLine="28" d="M128,147.01 C128,164.15 128,183.06 128,200.2 " fill="none" id="azure_nat_gateway-to-azure_public_ip_address" style="stroke:#1A83AF;stroke-width:2.0;"/><polygon fill="#1A83AF" points="128,206.2,132,197.2,128,201.2,124,197.2,128,206.2" style="stroke:#1A83AF;stroke-width:2.0;"/></g><!--link azure_subnet to azure_nat_gateway--><g id="link_azure_subnet_azure_nat_gateway"><path codeLine="29" d="M128,47.22 C128,64.36 128,83.27 128,100.41 " fill="none" id="azure_subnet-to-azure_nat_gateway" style="stroke:#1A83AF;stroke-width:2.0;"/><polygon fill="#1A83AF" points="128,106.41,132,97.41,128,101.41,124,97.41,128,106.41" style="stroke:#1A83AF;stroke-width:2.0;"/></g><!--SRC=[XP91Qy9048Nl_ee5puAfj2QNGWn8Uv5IUoibJBApkfZiXjb9HKl_UussPKsCNkTz- -QzOTTQei2oufqeiSoGtC1jjAc0e1GnaTqcjh0aXag1capRujmQlWaie4JnXCKdiiwXJRojTRunw9ouywGPv9iLsTh8apqJ67UGqB179GKu5pEJpcf6BuoCib2fDjas7KvaC7t03cP98lqYu_5O1b4RkRdgQkz_OgdtA0B_Q0lBs8dPMN6ahgPi22zaf-YVtfln1QJKPYNklTdhAHCPfBFvSWtIRXjQGU7yDOwHqFAkmgJJ2gDGgkb5-BaFpflB2TZNXAa1JbV0k8MT-1fydsbLdHKwJtML7cfGyxdQXAipWtmST-r6xyCW3YVn_6FqsESuEFEvyC8p_040]--></g></svg>

<svg xmlns="http://www.w3.org/2000/svg" width="256" height="252" viewBox="0 0 256 252"><rect width="206" height="39.789" x="25" y="106.79" fill="#3D176E" rx="2.5" ry="2.5" style="stroke:#000d19;stroke-width:.5"/><circle cx="40" cy="126.684" r="11" fill="#ADD1B2" style="stroke:#181818;stroke-width:1"/><path d="M42.969 132.325q-.578.297-1.219.438-.64.156-1.344.156-2.5 0-3.828-1.64-1.312-1.657-1.312-4.782t1.312-4.781q1.328-1.656 3.828-1.656.703 0 1.344.156.656.156 1.219.453v2.719q-.625-.579-1.219-.844-.594-.281-1.219-.281-1.343 0-2.031 1.078-.687 1.062-.687 3.156t.687 3.172q.688 1.062 2.031 1.062.625 0 1.219-.265.594-.281 1.219-.86z"/><text x="59" y="132.57" fill="#D9B8FF" font-family="Helvetica" font-size="17" textLength="164">azure_nat_gateway</text><rect width="242" height="39.789" x="7" y="206.58" fill="#3D176E" rx="2.5" ry="2.5" style="stroke:#000d19;stroke-width:.5"/><circle cx="22" cy="226.475" r="11" fill="#ADD1B2" style="stroke:#181818;stroke-width:1"/><path d="M24.969 232.115q-.578.297-1.219.438-.64.156-1.344.156-2.5 0-3.828-1.64-1.312-1.657-1.312-4.782t1.312-4.781q1.328-1.656 3.828-1.656.703 0 1.344.156.656.156 1.219.453v2.719q-.625-.578-1.219-.844-.594-.281-1.219-.281-1.343 0-2.031 1.078-.687 1.062-.687 3.156t.687 3.172q.688 1.062 2.031 1.062.625 0 1.219-.265.594-.281 1.219-.86z"/><text x="41" y="232.36" fill="#D9B8FF" font-family="Helvetica" font-size="17" textLength="200">azure_public_ip_address</text><rect width="154" height="39.789" x="51" y="7" fill="#3D176E" rx="2.5" ry="2.5" style="stroke:#000d19;stroke-width:.5"/><circle cx="66" cy="26.895" r="11" fill="#ADD1B2" style="stroke:#181818;stroke-width:1"/><path d="M68.969 32.535q-.578.297-1.219.438-.64.156-1.344.156-2.5 0-3.828-1.64-1.312-1.657-1.312-4.782t1.312-4.781q1.328-1.656 3.828-1.656.703 0 1.344.156.656.156 1.219.453v2.719q-.625-.578-1.219-.844-.594-.281-1.219-.281-1.344 0-2.031 1.078-.687 1.062-.687 3.156t.687 3.172q.688 1.062 2.031 1.062.625 0 1.219-.265.594-.281 1.219-.86z"/><text x="85" y="32.78" fill="#D9B8FF" font-family="Helvetica" font-size="17" textLength="112">azure_subnet</text><path fill="none" d="M128 147.01v53.19" style="stroke:#1a83af;stroke-width:2"/><path fill="#1A83AF" d="m128 206.2 4-9-4 4-4-4z" style="stroke:#1a83af;stroke-width:2"/><path fill="none" d="M128 47.22v53.19" style="stroke:#1a83af;stroke-width:2"/><path fill="#1A83AF" d="m128 106.41 4-9-4 4-4-4z" style="stroke:#1a83af;stroke-width:2"/></svg>
